packages/foundations/assets/icons/functional/images/transportation/electric_scooter_14.svg

<svg width="14" height="14" viewBox="0 0 14 14" fill="none" xmlns="http://www.w3.org/2000/svg">
<g clip-path="url(#clip0_187_979)">
<path fill-rule="evenodd" clip-rule="evenodd" d="M10.6476 1.51759L9.20192 1.95429C8.71644 2.10094 8.4099 2.57088 8.46093 3.06611L9.27288 7.1463C8.60317 7.57835 8.02929 8.10656 7.6647 8.59268C7.34724 9.01595 7.14465 9.50854 7.05434 10.0622L4.75426 10.0624C4.48418 9.44442 3.86757 9.01268 3.14997 9.01268C2.18367 9.01268 1.39997 9.79616 1.39997 10.7627C1.39997 11.7292 2.18367 12.5127 3.14997 12.5127C3.86745 12.5127 4.48398 12.0811 4.75412 11.4633L7.6997 11.4627C8.0863 11.4627 8.3997 11.1493 8.3997 10.7627C8.39969 10.2074 8.53041 9.77173 8.7847 9.43268C8.97611 9.17747 9.23872 8.91724 9.57315 8.65432L9.72741 9.42017C9.34392 9.74119 9.09998 10.2234 9.09998 10.7627C9.09998 11.7292 9.88367 12.5127 10.85 12.5127C11.8166 12.5127 12.6 11.7293 12.6 10.7627C12.6 9.87291 11.9362 9.1384 11.0767 9.02723L9.91128 3.20268L11.0524 2.85777C11.396 2.75396 11.6441 2.34381 11.5201 1.98526C11.396 1.62671 11.0324 1.40289 10.6476 1.51759ZM10.85 10.4127C11.0434 10.4127 11.2 10.5693 11.2 10.7627C11.2 10.9561 11.0434 11.1127 10.85 11.1127C10.6568 11.1127 10.5 10.9559 10.5 10.7627C10.5 10.5694 10.6568 10.4127 10.85 10.4127ZM3.14997 10.4127C3.3434 10.4127 3.49998 10.5693 3.49998 10.7627C3.49998 10.9561 3.3434 11.1127 3.14997 11.1127C2.95679 11.1127 2.79998 10.9559 2.79998 10.7627C2.79998 10.5694 2.95679 10.4127 3.14997 10.4127ZM5.38586 7.80905C4.5807 7.0317 3.67315 6.76153 2.68739 6.92171C2.30579 6.98372 2.04672 7.34333 2.10873 7.72492C2.17073 8.10651 2.53034 8.36559 2.91194 8.30358C3.46893 8.21307 3.93127 8.35071 4.41346 8.81624C4.69159 9.08476 5.13474 9.07698 5.40326 8.79885C5.67178 8.52072 5.66399 8.07757 5.38586 7.80905Z" fill="#1A1C1F"/>
</g>
<defs>
<clipPath id="clip0_187_979">
<rect width="14" height="14" fill="white"/>
</clipPath>
</defs>
</svg>

<svg xmlns="http://www.w3.org/2000/svg" width="14" height="14" fill="none"><g clip-path="url(#a)"><path fill="#1A1C1F" fill-rule="evenodd" d="m10.648 1.518-1.446.436a1.05 1.05 0 0 0-.741 1.112l.812 4.08c-.67.432-1.244.96-1.608 1.447-.318.423-.52.916-.61 1.47h-2.3a1.75 1.75 0 1 0 0 1.4H7.7a.7.7 0 0 0 .7-.7c0-.556.13-.991.385-1.33q.287-.384.788-.779l.154.766a1.75 1.75 0 1 0 1.35-.393L9.91 3.203l1.141-.345c.344-.104.592-.514.468-.873-.124-.358-.488-.582-.872-.467m.202 8.895a.35.35 0 1 1 0 .7.35.35 0 0 1 0-.7m-7.7 0a.35.35 0 1 1 0 .7.35.35 0 0 1 0-.7m2.236-2.604c-.805-.777-1.713-1.047-2.699-.887a.7.7 0 1 0 .225 1.382c.557-.09 1.02.047 1.501.512a.7.7 0 1 0 .973-1.007" clip-rule="evenodd"/></g><defs><clipPath id="a"><path fill="#fff" d="M0 0h14v14H0z"/></clipPath></defs></svg>
